<?xml version="1.0" encoding="UTF-8"?>
<map version="1.10" tiledversion="1.11.2" orientation="orthogonal" renderorder="right-down" width="60" height="60" tilewidth="48" tileheight="48" infinite="0" nextlayerid="8" nextobjectid="108">
 <tileset firstgid="1" source="map.tsx"/>
 <layer id="3" name="base" width="60" height="60">
  <data encoding="csv">
5,5,5,5,5,5,5,5,5,5,5,5,5,5,5,5,5,5,5,5,5,5,5,5,5,5,5,5,5,5,5,5,5,5,5,5,5,5,5,5,5,5,5,5,5,5,5,5,5,5,5,5,5,5,5,5,5,5,5,5,
5,5,5,5,5,5,5,5,5,5,5,5,5,5,5,5,5,5,5,5,5,5,5,5,5,5,5,5,5,5,5,5,5,5,5,5,5,5,5,5,5,5,5,5,5,5,5,5,5,5,5,5,5,5,5,5,5,5,5,5,
5,5,5,5,5,5,5,5,5,5,5,5,5,5,5,5,5,5,5,5,5,5,5,5,5,5,5,5,5,5,5,5,5,5,5,5,5,5,5,5,5,5,5,5,5,5,5,5,5,5,5,5,5,5,5,5,5,5,5,5,
5,5,5,5,5,5,5,5,5,5,5,5,5,5,5,5,5,5,5,5,5,5,5,5,5,5,5,5,5,5,5,5,5,5,5,5,5,5,5,5,5,5,5,5,5,5,5,5,5,5,5,5,5,5,5,5,5,5,5,5,
5,5,5,5,5,5,5,5,5,5,5,5,5,5,5,5,5,5,5,5,5,5,5,5,5,5,5,5,5,5,5,5,5,5,5,5,5,5,5,5,5,5,5,5,5,5,5,5,5,5,5,5,5,5,5,5,5,5,5,5,
5,5,5,5,5,5,5,5,5,5,5,5,5,5,5,5,5,5,5,5,5,5,5,5,5,5,5,5,5,5,5,5,5,5,5,5,5,5,5,5,5,5,5,5,5,5,5,5,5,5,5,5,5,5,5,5,5,5,5,5,
5,5,5,5,5,5,5,5,5,5,5,5,5,5,5,5,5,5,5,5,5,5,5,5,5,5,5,5,5,5,5,5,5,5,5,5,5,5,5,5,5,5,5,5,5,5,5,5,5,5,5,5,5,5,5,5,5,5,5,5,
5,5,5,5,5,5,5,5,5,5,5,5,5,5,5,5,5,5,5,5,5,5,5,5,5,5,5,5,5,5,5,5,5,5,5,5,5,5,5,5,5,5,5,5,5,5,5,5,5,5,5,5,5,5,5,5,5,5,5,5,
5,5,5,5,5,5,5,5,5,5,5,5,5,5,5,5,5,5,5,5,5,5,5,5,5,5,5,5,5,5,5,5,5,5,5,5,5,5,5,5,5,5,5,5,5,5,5,5,5,5,5,5,5,5,5,5,5,5,5,5,
5,5,5,5,5,5,5,5,5,5,5,5,5,5,5,5,5,5,5,5,5,5,5,5,5,5,5,5,5,5,5,5,5,5,5,5,5,5,5,5,5,5,5,5,5,5,5,5,5,5,5,5,5,5,5,5,5,5,5,5,
5,5,5,5,5,5,5,5,5,5,5,5,5,5,5,5,5,5,5,5,5,5,5,5,5,5,5,5,5,5,5,5,5,5,5,5,5,5,5,5,5,5,5,5,5,5,5,5,5,5,5,5,5,5,5,5,5,5,5,5,
5,5,5,5,5,5,5,5,5,5,5,5,5,5,5,5,5,5,5,5,5,5,5,5,5,5,5,5,5,5,5,5,5,5,5,5,5,5,5,5,5,5,5,5,5,5,5,5,5,5,5,5,5,5,5,5,5,5,5,5,
5,5,5,5,5,5,5,5,5,5,5,5,5,5,5,5,5,5,5,5,5,5,5,5,5,5,5,5,5,5,5,5,5,5,5,5,5,5,5,5,5,5,5,5,5,5,5,5,5,5,5,5,5,5,5,5,5,5,5,5,
5,5,5,5,5,5,5,5,5,5,5,5,5,5,5,5,5,5,5,5,5,5,5,5,5,5,5,5,5,5,5,5,5,5,5,5,5,5,5,5,5,5,5,5,5,5,5,5,5,5,5,5,5,5,5,5,5,5,5,5,
5,5,5,5,5,5,5,5,5,5,5,5,5,5,5,5,5,5,5,5,5,5,5,5,5,5,5,5,5,5,5,5,5,5,5,5,5,5,5,5,5,5,5,5,5,5,5,5,5,5,5,5,5,5,5,5,5,5,5,5,
5,5,5,5,5,5,5,5,5,5,5,5,5,5,5,5,5,5,5,5,5,5,5,5,5,5,5,5,5,5,5,5,5,5,5,5,5,5,5,5,5,5,5,5,5,5,5,5,5,5,5,5,5,5,5,5,5,5,5,5,
5,5,5,5,5,5,5,5,5,5,5,5,5,5,5,5,5,5,5,5,5,5,5,5,5,5,5,5,5,5,5,5,5,5,5,5,5,5,5,5,5,5,5,5,5,5,5,5,5,5,5,5,5,5,5,5,5,5,5,5,
5,5,5,5,5,5,5,5,5,5,5,5,5,5,5,5,5,5,5,5,5,5,5,5,5,5,5,5,5,5,5,5,5,5,5,5,5,5,5,5,5,5,5,5,5,5,5,5,5,5,5,5,5,5,5,5,5,5,5,5,
5,5,5,5,5,5,5,5,5,5,5,5,5,5,5,5,5,5,5,5,5,5,5,5,5,5,5,5,5,5,5,5,5,5,5,5,5,5,5,5,5,5,5,5,5,5,5,5,5,5,5,5,5,5,5,5,5,5,5,5,
5,5,5,5,5,5,5,5,5,5,5,5,5,5,5,5,5,5,5,5,5,5,5,5,5,5,5,5,5,5,5,5,5,5,5,5,5,5,5,5,5,5,5,5,5,5,5,5,5,5,5,5,5,5,5,5,5,5,5,5,
5,5,5,5,5,5,5,5,5,5,5,5,5,5,5,5,5,5,5,5,5,5,5,5,5,5,5,5,5,5,5,5,5,5,5,5,5,5,5,5,5,5,5,5,5,5,5,5,5,5,5,5,5,5,5,5,5,5,5,5,
5,5,5,5,5,5,5,5,5,5,5,5,5,5,5,5,5,5,5,5,5,5,5,5,5,5,5,5,5,5,5,5,5,5,5,5,5,5,5,5,5,5,5,5,5,5,5,5,5,5,5,5,5,5,5,5,5,5,5,5,
5,5,5,5,5,5,5,5,5,5,5,5,5,5,5,5,5,5,5,5,5,5,5,5,5,5,5,5,5,5,5,5,5,5,5,5,5,5,5,5,5,5,5,5,5,5,5,5,5,5,5,5,5,5,5,5,5,5,5,5,
5,5,5,5,5,5,5,5,5,5,5,5,5,5,5,5,5,5,5,5,5,5,5,5,5,5,5,5,5,5,5,5,5,5,5,5,5,5,5,5,5,5,5,5,5,5,5,5,5,5,5,5,5,5,5,5,5,5,5,5,
5,5,5,5,5,5,5,5,5,5,5,5,5,5,5,5,5,5,5,5,5,5,5,5,5,5,5,5,5,5,5,5,5,5,5,5,5,5,5,5,5,5,5,5,5,5,5,5,5,5,5,5,5,5,5,5,5,5,5,5,
5,5,5,5,5,5,5,5,5,5,5,5,5,5,5,5,5,5,5,5,5,5,5,5,5,5,5,5,5,5,5,5,5,5,5,5,5,5,5,5,5,5,5,5,5,5,5,5,5,5,5,5,5,5,5,5,5,5,5,5,
5,5,5,5,5,5,5,5,5,5,5,5,5,5,5,5,5,5,5,5,5,5,5,5,5,5,5,5,5,5,5,5,5,5,5,5,5,5,5,5,5,5,5,5,5,5,5,5,5,5,5,5,5,5,5,5,5,5,5,5,
5,5,5,5,5,5,5,5,5,5,5,5,5,5,5,5,5,5,5,5,5,5,5,5,5,5,5,5,5,5,5,5,5,5,5,5,5,5,5,5,5,5,5,5,5,5,5,5,5,5,5,5,5,5,5,5,5,5,5,5,
5,5,5,5,5,5,5,5,5,5,5,5,5,5,5,5,5,5,5,5,5,5,5,5,5,5,5,5,5,5,5,5,5,5,5,5,5,5,5,5,5,5,5,5,5,5,5,5,5,5,5,5,5,5,5,5,5,5,5,5,
5,5,5,5,5,5,5,5,5,5,5,5,5,5,5,5,5,5,5,5,5,5,5,5,5,5,5,5,5,5,5,5,5,5,5,5,5,5,5,5,5,5,5,5,5,5,5,5,5,5,5,5,5,5,5,5,5,5,5,5,
5,5,5,5,5,5,5,5,5,5,5,5,5,5,5,5,5,5,5,5,5,5,5,5,5,5,5,5,5,5,5,5,5,5,5,5,5,5,5,5,5,5,5,5,5,5,5,5,5,5,5,5,5,5,5,5,5,5,5,5,
5,5,5,5,5,5,5,5,5,5,5,5,5,5,5,5,5,5,5,5,5,5,5,5,5,5,5,5,5,5,5,5,5,5,5,5,5,5,5,5,5,5,5,5,5,5,5,5,5,5,5,5,5,5,5,5,5,5,5,5,
5,5,5,5,5,5,5,5,5,5,5,5,5,5,5,5,5,5,5,5,5,5,5,5,5,5,5,5,5,5,5,5,5,5,5,5,5,5,5,5,5,5,5,5,5,5,5,5,5,5,5,5,5,5,5,5,5,5,5,5,
5,5,5,5,5,5,5,5,5,5,5,5,5,5,5,5,5,5,5,5,5,5,5,5,5,5,5,5,5,5,5,5,5,5,5,5,5,5,5,5,5,5,5,5,5,5,5,5,5,5,5,5,5,5,5,5,5,5,5,5,
5,5,5,5,5,5,5,5,5,5,5,5,5,5,5,5,5,5,5,5,5,5,5,5,5,5,5,5,5,5,5,5,5,5,5,5,5,5,5,5,5,5,5,5,5,5,5,5,5,5,5,5,5,5,5,5,5,5,5,5,
5,5,5,5,5,5,5,5,5,5,5,5,5,5,5,5,5,5,5,5,5,5,5,5,5,5,5,5,5,5,5,5,5,5,5,5,5,5,5,5,5,5,5,5,5,5,5,5,5,5,5,5,5,5,5,5,5,5,5,5,
5,5,5,5,5,5,5,5,5,5,5,5,5,5,5,5,5,5,5,5,5,5,5,5,5,5,5,5,5,5,5,5,5,5,5,5,5,5,5,5,5,5,5,5,5,5,5,5,5,5,5,5,5,5,5,5,5,5,5,5,
5,5,5,5,5,5,5,5,5,5,5,5,5,5,5,5,5,5,5,5,5,5,5,5,5,5,5,5,5,5,5,5,5,5,5,5,5,5,5,5,5,5,5,5,5,5,5,5,5,5,5,5,5,5,5,5,5,5,5,5,
5,5,5,5,5,5,5,5,5,5,5,5,5,5,5,5,5,5,5,5,5,5,5,5,5,5,5,5,5,5,5,5,5,5,5,5,5,5,5,5,5,5,5,5,5,5,5,5,5,5,5,5,5,5,5,5,5,5,5,5,
5,5,5,5,5,5,5,5,5,5,5,5,5,5,5,5,5,5,5,5,5,5,5,5,5,5,5,5,5,5,5,5,5,5,5,5,5,5,5,5,5,5,5,5,5,5,5,5,5,5,5,5,5,5,5,5,5,5,5,5,
5,5,5,5,5,5,5,5,5,5,5,5,5,5,5,5,5,5,5,5,5,5,5,5,5,5,5,5,5,5,5,5,5,5,5,5,5,5,5,5,5,5,5,5,5,5,5,5,5,5,5,5,5,5,5,5,5,5,5,5,
5,5,5,5,5,5,5,5,5,5,5,5,5,5,5,5,5,5,5,5,5,5,5,5,5,5,5,5,5,5,5,5,5,5,5,5,5,5,5,5,5,5,5,5,5,5,5,5,5,5,5,5,5,5,5,5,5,5,5,5,
5,5,5,5,5,5,5,5,5,5,5,5,5,5,5,5,5,5,5,5,5,5,5,5,5,5,5,5,5,5,5,5,5,5,5,5,5,5,5,5,5,5,5,5,5,5,5,5,5,5,5,5,5,5,5,5,5,5,5,5,
5,5,5,5,5,5,5,5,5,5,5,5,5,5,5,5,5,5,5,5,5,5,5,5,5,5,5,5,5,5,5,5,5,5,5,5,5,5,5,5,5,5,5,5,5,5,5,5,5,5,5,5,5,5,5,5,5,5,5,5,
5,5,5,5,5,5,5,5,5,5,5,5,5,5,5,5,5,5,5,5,5,5,5,5,5,5,5,5,5,5,5,5,5,5,5,5,5,5,5,5,5,5,5,5,5,5,5,5,5,5,5,5,5,5,5,5,5,5,5,5,
5,5,5,5,5,5,5,5,5,5,5,5,5,5,5,5,5,5,5,5,5,5,5,5,5,5,5,5,5,5,5,5,5,5,5,5,5,5,5,5,5,5,5,5,5,5,5,5,5,5,5,5,5,5,5,5,5,5,5,5,
5,5,5,5,5,5,5,5,5,5,5,5,5,5,5,5,5,5,5,5,5,5,5,5,5,5,5,5,5,5,5,5,5,5,5,5,5,5,5,5,5,5,5,5,5,5,5,5,5,5,5,5,5,5,5,5,5,5,5,5,
5,5,5,5,5,5,5,5,5,5,5,5,5,5,5,5,5,5,5,5,5,5,5,5,5,5,5,5,5,5,5,5,5,5,5,5,5,5,5,5,5,5,5,5,5,5,5,5,5,5,5,5,5,5,5,5,5,5,5,5,
5,5,5,5,5,5,5,5,5,5,5,5,5,5,5,5,5,5,5,5,5,5,5,5,5,5,5,5,5,5,5,5,5,5,5,5,5,5,5,5,5,5,5,5,5,5,5,5,5,5,5,5,5,5,5,5,5,5,5,5,
5,5,5,5,5,5,5,5,5,5,5,5,5,5,5,5,5,5,5,5,5,5,5,5,5,5,5,5,5,5,5,5,5,5,5,5,5,5,5,5,5,5,5,5,5,5,5,5,5,5,5,5,5,5,5,5,5,5,5,5,
5,5,5,5,5,5,5,5,5,5,5,5,5,5,5,5,5,5,5,5,5,5,5,5,5,5,5,5,5,5,5,5,5,5,5,5,5,5,5,5,5,5,5,5,5,5,5,5,5,5,5,5,5,5,5,5,5,5,5,5,
5,5,5,5,5,5,5,5,5,5,5,5,5,5,5,5,5,5,5,5,5,5,5,5,5,5,5,5,5,5,5,5,5,5,5,5,5,5,5,5,5,5,5,5,5,5,5,5,5,5,5,5,5,5,5,5,5,5,5,5,
5,5,5,5,5,5,5,5,5,5,5,5,5,5,5,5,5,5,5,5,5,5,5,5,5,5,5,5,5,5,5,5,5,5,5,5,5,5,5,5,5,5,5,5,5,5,5,5,5,5,5,5,5,5,5,5,5,5,5,5,
5,5,5,5,5,5,5,5,5,5,5,5,5,5,5,5,5,5,5,5,5,5,5,5,5,5,5,5,5,5,5,5,5,5,5,5,5,5,5,5,5,5,5,5,5,5,5,5,5,5,5,5,5,5,5,5,5,5,5,5,
5,5,5,5,5,5,5,5,5,5,5,5,5,5,5,5,5,5,5,5,5,5,5,5,5,5,5,5,5,5,5,5,5,5,5,5,5,5,5,5,5,5,5,5,5,5,5,5,5,5,5,5,5,5,5,5,5,5,5,5,
5,5,5,5,5,5,5,5,5,5,5,5,5,5,5,5,5,5,5,5,5,5,5,5,5,5,5,5,5,5,5,5,5,5,5,5,5,5,5,5,5,5,5,5,5,5,5,5,5,5,5,5,5,5,5,5,5,5,5,5,
5,5,5,5,5,5,5,5,5,5,5,5,5,5,5,5,5,5,5,5,5,5,5,5,5,5,5,5,5,5,5,5,5,5,5,5,5,5,5,5,5,5,5,5,5,5,5,5,5,5,5,5,5,5,5,5,5,5,5,5,
5,5,5,5,5,5,5,5,5,5,5,5,5,5,5,5,5,5,5,5,5,5,5,5,5,5,5,5,5,5,5,5,5,5,5,5,5,5,5,5,5,5,5,5,5,5,5,5,5,5,5,5,5,5,5,5,5,5,5,5,
5,5,5,5,5,5,5,5,5,5,5,5,5,5,5,5,5,5,5,5,5,5,5,5,5,5,5,5,5,5,5,5,5,5,5,5,5,5,5,5,5,5,5,5,5,5,5,5,5,5,5,5,5,5,5,5,5,5,5,5,
5,5,5,5,5,5,5,5,5,5,5,5,5,5,5,5,5,5,5,5,5,5,5,5,5,5,5,5,5,5,5,5,5,5,5,5,5,5,5,5,5,5,5,5,5,5,5,5,5,5,5,5,5,5,5,5,5,5,5,5
</data>
 </layer>
 <layer id="4" name="other" width="60" height="60">
  <data encoding="csv">
0,0,0,0,300,301,302,303,304,300,301,302,303,304,300,301,302,303,304,300,301,302,303,304,0,0,0,0,300,301,302,303,304,300,301,302,303,304,300,301,302,303,304,0,0,0,0,300,301,302,303,304,300,301,302,303,304,300,301,302,
0,0,0,0,319,320,321,322,323,319,320,321,322,323,319,320,321,322,323,319,320,321,322,323,0,0,0,0,319,320,321,322,323,319,320,321,322,323,319,320,321,322,323,0,0,0,0,319,320,321,322,323,319,320,321,322,323,319,320,321,
0,0,0,0,338,339,340,341,342,338,339,340,341,342,338,339,340,341,342,338,339,340,341,342,0,0,0,0,338,339,340,341,342,338,339,340,341,342,338,339,340,341,342,0,0,0,0,338,339,340,341,342,338,339,340,341,342,338,339,340,
0,0,0,0,0,0,0,0,0,0,0,0,0,0,0,0,0,0,0,0,0,0,0,0,0,0,0,0,0,0,0,0,0,0,0,0,0,0,0,0,0,0,0,0,0,0,0,0,0,0,0,0,0,0,0,0,0,0,0,0,
0,0,0,0,0,0,0,0,0,0,0,476,477,478,479,480,0,0,476,477,478,479,480,0,0,476,477,478,479,480,0,403,404,405,0,0,0,0,0,0,0,0,486,487,488,489,490,491,486,487,488,489,490,491,0,0,0,0,0,0,
0,0,0,0,0,0,0,0,0,0,0,495,496,497,498,499,0,0,495,496,497,498,499,0,0,495,496,497,498,499,0,422,423,424,134,135,136,137,138,139,0,0,505,506,507,508,509,510,505,506,507,508,509,510,0,0,0,0,0,0,
0,0,0,0,0,0,0,0,0,0,0,514,515,516,517,518,0,0,514,515,516,517,518,0,0,514,515,516,517,518,0,441,442,443,153,154,174,175,157,158,0,0,524,525,526,527,528,529,524,525,526,527,528,529,0,0,0,0,0,0,
0,0,0,0,26,27,28,29,0,0,0,533,534,535,536,537,0,0,533,534,535,536,537,0,0,533,534,535,536,537,0,460,461,462,172,173,193,194,176,177,0,0,543,544,545,546,547,548,543,544,545,546,547,548,0,0,0,0,0,0,
0,0,0,49,45,46,47,48,49,49,49,49,49,49,49,49,49,49,49,49,49,49,49,49,49,49,49,49,49,49,49,49,49,49,49,49,49,49,49,49,49,49,49,49,49,49,49,49,49,49,49,49,49,49,49,49,0,0,0,0,
0,0,0,49,64,65,66,67,49,0,0,0,0,0,0,0,0,0,0,0,0,0,0,0,0,0,0,0,0,0,0,49,0,0,0,0,0,0,0,0,0,0,0,0,0,0,0,0,0,0,0,0,0,0,0,49,0,0,0,0,
0,0,0,49,12,13,14,0,49,0,0,558,559,560,561,0,0,0,12,13,13,13,13,13,13,13,14,0,0,0,0,49,0,0,0,0,0,12,13,13,13,13,13,13,13,13,13,13,13,13,14,0,0,0,0,49,552,553,554,0,
0,0,0,49,31,32,33,0,49,0,0,577,578,579,580,0,0,0,31,32,32,32,32,32,32,32,33,0,0,0,0,49,0,0,0,0,0,15,80,81,82,83,84,82,82,81,82,83,84,85,34,0,0,0,0,49,571,572,573,0,
0,0,0,49,50,51,52,0,49,0,0,596,597,598,599,0,0,0,50,51,51,51,51,51,51,51,52,0,0,0,0,49,0,0,0,70,71,72,70,71,101,102,103,100,100,100,101,102,70,71,72,70,71,0,0,49,590,591,592,0,
0,0,0,49,0,0,0,0,49,0,0,615,616,617,618,0,0,0,0,0,0,0,0,0,0,0,0,0,0,0,0,49,49,49,49,89,90,91,89,90,49,49,49,49,49,49,49,49,89,90,91,89,90,49,49,49,609,610,611,0,
0,0,0,49,0,0,0,0,49,49,49,49,49,0,0,0,0,0,0,0,0,0,0,0,0,0,0,0,0,0,0,49,0,0,0,108,109,110,108,109,100,100,100,100,100,100,100,100,108,109,110,108,109,0,0,49,49,49,0,0,
0,0,0,49,0,0,0,0,49,0,0,0,0,0,0,0,0,0,0,0,0,0,0,0,0,0,0,0,0,0,0,49,0,0,0,0,0,31,99,100,101,102,103,100,101,100,101,102,103,104,99,0,0,0,0,49,0,0,0,0,
0,0,0,49,0,0,0,0,49,290,291,291,291,291,291,290,290,291,291,290,290,291,291,291,291,291,291,291,291,291,292,49,0,0,0,0,0,50,118,119,120,121,122,121,121,119,120,121,122,123,52,0,0,0,0,49,552,553,554,0,
0,0,0,49,0,0,0,0,49,309,0,0,0,0,0,0,0,0,0,0,0,0,0,0,0,0,0,0,0,0,311,49,0,0,0,0,0,0,0,0,0,0,0,0,0,0,0,0,0,0,0,0,0,0,0,49,571,572,573,0,
0,0,0,49,0,238,239,0,49,309,633,634,635,636,637,0,0,0,0,0,0,633,634,635,636,637,0,0,0,0,311,49,0,0,0,0,0,633,634,635,636,637,0,0,0,0,0,633,634,635,636,637,0,0,0,49,590,591,592,0,
0,0,0,49,0,257,258,0,49,309,652,653,654,655,656,0,0,0,0,0,0,652,653,654,655,656,0,0,0,0,311,49,0,0,0,0,0,652,653,654,655,656,0,0,0,0,0,652,653,654,655,656,0,0,0,49,609,610,611,0,
0,0,0,49,0,276,277,0,49,309,671,672,673,674,675,0,0,0,0,0,0,671,672,673,674,675,0,0,0,0,311,49,0,0,0,0,0,671,672,673,674,675,0,0,0,0,0,671,672,673,674,675,0,0,0,49,49,49,0,0,
0,0,0,49,0,238,239,0,49,309,690,691,692,693,694,0,0,0,0,0,0,690,691,692,693,694,0,329,329,329,330,49,0,0,0,0,0,690,691,692,693,694,0,0,0,0,0,690,691,692,693,694,0,0,0,49,0,0,0,0,
0,0,0,49,0,257,258,0,49,49,49,49,49,49,49,49,49,49,49,49,49,49,49,49,49,49,49,49,49,49,49,49,49,49,49,49,49,49,49,49,0,0,0,0,0,0,0,0,0,49,49,49,49,49,49,49,0,0,0,0,
0,0,0,49,0,276,277,0,49,0,0,0,0,0,0,0,0,0,0,0,0,0,0,0,0,0,0,0,0,0,0,49,0,0,0,0,0,0,0,0,0,0,0,0,0,0,0,0,0,0,0,0,0,0,0,49,552,553,554,0,
0,0,0,49,0,238,239,0,49,0,0,0,0,0,0,0,0,0,0,0,0,0,0,0,0,0,0,0,0,0,0,49,0,0,0,0,0,0,0,0,0,0,0,0,0,0,0,0,0,0,0,0,0,0,0,49,571,572,573,0,
0,0,0,49,0,257,258,0,49,0,0,0,0,0,0,0,0,0,0,0,0,0,0,0,0,0,0,0,0,0,0,49,0,0,0,0,0,0,0,0,0,0,0,0,0,0,0,0,0,0,0,0,0,0,0,49,590,591,592,0,
0,0,0,49,0,276,277,0,49,0,633,634,635,636,637,0,0,0,0,0,0,633,634,635,636,637,0,0,0,0,0,49,0,0,0,0,0,633,634,635,636,637,0,0,0,0,0,633,634,635,636,637,0,0,0,49,609,610,611,0,
0,0,0,49,0,238,239,0,49,0,652,653,654,655,656,0,0,0,0,0,0,652,653,654,655,656,0,0,0,0,0,49,0,0,0,0,0,652,653,654,655,656,0,0,0,0,0,652,653,654,655,656,0,0,0,49,49,49,0,0,
0,0,0,49,0,257,258,0,49,0,671,672,673,674,675,0,0,0,0,0,0,671,672,673,674,675,0,0,0,0,0,49,0,0,0,0,0,671,672,673,674,675,0,0,0,0,0,671,672,673,674,675,0,0,0,49,0,0,0,0,
0,0,0,49,0,276,277,0,49,0,690,691,692,693,694,0,0,0,0,0,0,690,691,692,693,694,0,0,0,0,0,49,0,0,0,0,0,690,691,692,693,694,0,0,0,0,0,690,691,692,693,694,0,0,0,49,0,0,0,0,
0,0,0,49,0,238,239,0,49,49,49,49,49,49,49,49,49,49,49,49,49,49,49,49,49,49,49,49,49,49,49,49,49,49,49,49,49,49,49,49,0,0,0,0,0,0,0,0,0,49,49,49,49,49,49,49,0,0,0,0,
0,0,0,49,0,257,258,0,49,0,0,0,0,0,0,0,0,0,0,0,0,0,0,0,0,0,0,0,0,0,0,49,0,0,0,0,0,0,0,0,0,0,0,0,0,0,0,0,0,0,0,0,0,0,0,49,0,0,0,0,
0,0,0,49,0,276,277,0,49,329,329,329,329,329,329,329,329,329,329,329,329,329,329,329,329,329,329,329,329,329,292,49,0,0,0,0,0,0,0,0,0,0,0,0,0,0,0,0,0,0,0,0,0,0,0,49,0,0,0,0,
0,0,0,49,0,238,239,0,49,0,0,0,0,0,0,0,0,0,0,0,0,0,0,0,0,0,0,0,0,0,311,49,0,0,0,0,0,0,0,0,0,0,0,0,0,0,0,0,0,0,0,0,0,0,0,49,0,0,0,0,
0,0,0,49,0,257,258,0,49,0,633,634,635,636,637,0,0,0,0,0,0,633,634,635,636,637,0,0,0,0,311,49,0,0,0,0,0,0,0,0,0,0,0,0,0,0,0,0,0,0,0,0,0,0,0,49,0,0,0,0,
0,0,0,49,0,276,277,0,49,0,652,653,654,655,656,0,0,0,0,0,0,652,653,654,655,656,0,0,0,0,311,49,0,0,0,0,0,0,0,0,0,0,0,0,0,0,0,0,0,0,0,0,0,0,0,49,0,0,0,0,
0,0,0,49,0,238,239,0,49,0,671,672,673,674,675,0,0,0,0,0,0,671,672,673,674,675,0,0,0,0,311,49,0,0,0,0,0,633,634,635,636,637,0,0,0,0,0,633,634,635,636,637,0,0,0,49,0,0,0,0,
0,0,0,49,0,257,258,0,49,0,690,691,692,693,694,0,0,0,0,0,0,690,691,692,693,694,0,0,0,0,311,49,0,0,0,0,0,652,653,654,655,656,0,0,0,0,0,652,653,654,655,656,0,0,0,49,0,0,0,0,
0,0,0,49,0,276,277,0,49,49,49,49,49,49,49,49,49,49,49,49,49,49,49,49,49,49,49,49,49,49,49,49,0,0,0,0,0,671,672,673,674,675,0,0,0,0,0,671,672,673,674,675,0,0,0,49,0,0,0,0,
0,0,0,49,0,0,0,0,0,0,0,0,0,0,0,0,0,0,0,0,0,0,0,0,0,0,0,0,0,0,0,49,0,0,0,0,0,690,691,692,693,694,0,0,0,0,0,690,691,692,693,694,0,0,0,49,0,0,0,0,
0,0,0,49,0,0,0,0,0,0,0,0,0,0,0,0,0,0,0,0,0,0,0,0,0,0,0,0,270,0,0,49,49,49,49,49,49,49,49,49,0,0,0,0,0,0,0,0,0,49,49,49,49,49,49,49,0,0,0,0,
0,0,0,49,0,0,0,0,0,0,0,0,0,0,0,0,0,0,0,0,0,0,0,0,270,0,0,0,289,0,0,49,292,329,329,329,329,329,329,329,329,329,329,329,329,329,329,329,329,329,329,329,329,329,292,49,0,0,0,0,
0,0,0,49,0,0,0,0,0,0,0,0,0,0,0,0,0,0,0,0,0,0,270,0,289,0,0,0,0,0,0,49,0,0,0,0,0,0,0,0,0,0,0,0,0,0,0,0,0,0,0,0,0,0,311,49,0,0,0,0,
0,0,0,49,0,0,0,0,0,0,0,0,0,0,0,270,270,270,0,0,0,0,289,0,0,0,0,0,0,0,0,49,0,0,0,0,0,0,0,0,0,0,0,0,0,0,0,0,0,0,0,0,0,0,311,49,0,0,0,0,
0,0,0,49,0,0,0,0,0,0,0,0,0,0,0,289,289,289,0,0,0,0,270,0,0,0,0,0,0,0,0,49,0,0,0,0,0,0,0,0,0,0,0,0,0,0,0,0,0,0,0,0,0,0,311,49,0,0,0,0,
0,0,0,49,0,0,0,0,0,0,0,0,270,0,0,0,0,0,0,0,0,0,289,0,0,0,0,0,0,0,0,49,0,0,0,0,0,0,0,0,0,0,0,0,0,0,0,0,0,0,0,0,0,0,311,49,0,0,0,0,
0,0,0,49,0,0,0,0,0,0,0,0,289,0,0,0,0,0,0,0,0,0,0,0,0,0,0,0,0,0,0,49,0,0,0,0,0,0,0,0,0,0,0,0,0,0,0,0,0,0,0,0,0,0,311,49,0,0,0,0,
0,0,0,49,0,0,0,0,0,0,0,0,0,0,0,0,0,0,0,0,0,0,0,0,0,0,0,0,0,0,0,49,0,0,0,0,0,0,0,0,0,0,0,0,0,0,0,0,0,0,0,0,0,0,311,49,0,0,0,0,
0,0,0,49,0,0,0,0,0,0,0,0,0,0,0,0,0,0,0,0,0,0,0,0,0,0,0,0,0,0,0,49,0,0,0,0,0,0,0,0,0,0,0,0,0,0,0,0,0,0,0,0,0,0,311,49,0,0,0,0,
0,0,0,49,0,0,0,0,0,0,0,0,0,0,0,0,0,0,0,0,0,0,0,0,0,0,0,0,0,0,0,49,330,329,329,329,329,329,329,329,329,329,329,329,329,329,329,329,329,329,329,329,329,329,330,49,0,0,0,0,
0,0,0,49,0,0,0,0,0,0,0,0,0,0,0,0,0,0,0,0,0,0,0,0,0,0,0,0,0,0,0,49,0,0,0,0,0,0,0,0,0,0,0,0,0,0,0,0,0,0,0,0,0,0,0,49,0,0,0,0,
0,0,0,49,0,0,0,0,0,0,0,0,0,0,0,0,0,0,0,0,710,711,712,713,710,711,712,713,0,0,0,49,710,711,712,713,710,711,712,713,0,0,0,0,710,711,712,713,710,711,712,713,0,0,0,49,0,0,0,0,
0,0,0,49,0,0,0,0,0,0,0,0,0,0,0,0,0,0,0,0,729,730,731,732,729,730,731,732,0,0,0,49,729,730,731,732,729,730,731,732,0,0,0,0,729,730,731,732,729,730,731,732,12,13,14,49,0,0,0,0,
0,0,0,49,0,0,0,0,0,0,0,0,0,0,0,0,0,0,0,0,748,749,750,751,748,749,750,751,0,0,0,49,748,749,750,751,748,749,750,751,0,0,0,0,748,749,750,751,748,749,750,751,31,32,33,49,0,0,0,0,
0,0,0,49,0,0,0,0,0,0,0,0,0,0,0,0,0,0,0,0,767,768,769,770,767,768,769,770,0,0,0,49,767,768,769,770,767,768,769,770,0,0,0,0,767,768,769,770,767,768,769,770,50,51,52,49,0,0,0,0,
0,0,0,49,49,49,49,49,49,49,49,49,49,49,49,49,49,49,49,49,49,49,49,49,49,49,49,49,49,49,49,49,49,49,49,49,49,49,49,49,49,49,49,49,49,49,49,49,49,49,49,49,49,49,49,49,0,0,0,0,
0,0,0,0,0,0,0,0,0,0,0,134,135,193,194,138,139,0,0,0,0,0,0,0,0,0,0,0,0,0,0,0,0,0,0,0,0,0,0,0,0,0,0,0,0,0,0,0,0,0,0,0,0,0,0,0,0,0,0,0,
0,0,0,0,0,0,0,0,0,0,0,153,154,174,175,157,158,0,0,0,0,238,239,240,241,238,239,240,241,238,239,240,241,238,239,240,241,238,239,240,241,238,239,240,241,0,0,238,239,240,241,238,239,240,241,238,239,240,241,0,
0,0,0,0,0,0,0,0,0,0,0,172,173,155,156,176,177,0,0,0,0,257,258,259,260,257,258,259,260,257,258,259,260,257,258,259,260,257,258,259,260,257,258,259,260,0,0,257,258,259,260,257,258,259,260,257,258,259,260,0,
0,0,0,0,0,0,0,0,0,0,0,191,192,195,195,195,196,0,0,0,0,276,277,278,279,276,277,278,279,276,277,278,279,276,277,278,279,276,277,278,279,276,277,278,279,0,0,276,277,278,279,276,277,278,279,276,277,278,279,0
</data>
 </layer>
 <objectgroup id="5" name="water_obj">
  <object id="31" x="196.072" y="490.181" width="128.201" height="131.972"/>
  <object id="32" x="872" y="492" width="414" height="126"/>
  <object id="33" x="1786" y="492" width="652" height="84"/>
  <object id="34" x="2360" y="700" width="78" height="106"/>
  <object id="35" x="1784" y="694" width="82" height="118"/>
  <object id="36" x="1878" y="766" width="478" height="50"/>
  <object id="37" x="2512" y="2508" width="116" height="122"/>
 </objectgroup>
 <objectgroup id="6" name="obstaculos_obj">
  <object id="38" x="1026" y="2774" width="1122" height="100"/>
  <object id="39" x="2270" y="2780" width="550" height="94"/>
  <object id="40" x="2316" y="2450" width="156" height="172"/>
  <object id="42" x="2122" y="2458" width="158" height="162"/>
  <object id="43" x="1730" y="2454" width="172" height="170"/>
  <object id="44" x="1542" y="2456" width="166" height="174"/>
  <object id="45" x="1542" y="2358" width="1094" height="36"/>
  <object id="46" x="2592" y="1972" width="42" height="390"/>
  <object id="47" x="1540" y="1974" width="1052" height="38"/>
  <object id="48" x="2270" y="1744" width="206" height="162"/>
  <object id="49" x="1798" y="1740" width="196" height="162"/>
  <object id="50" x="1346" y="1918" width="38" height="90"/>
  <object id="51" x="1156" y="1970" width="36" height="94"/>
  <object id="52" x="1060" y="2030" width="34" height="74"/>
  <object id="53" x="1058" y="2128" width="38" height="78"/>
  <object id="54" x="730" y="2074" width="32" height="86"/>
  <object id="55" x="778" y="2076" width="30" height="74"/>
  <object id="56" x="826" y="2072" width="32" height="84"/>
  <object id="57" x="580" y="2174" width="34" height="74"/>
  <object id="58" x="242" y="1474" width="92" height="106"/>
  <object id="59" x="244" y="1628" width="88" height="96"/>
  <object id="60" x="242" y="1758" width="92" height="104"/>
  <object id="61" x="500" y="1646" width="194" height="160"/>
  <object id="62" x="1024" y="1648" width="208" height="154"/>
  <object id="63" x="434" y="1534" width="1052" height="44"/>
  <object id="64" x="1440" y="1582" width="38" height="238"/>
  <object id="65" x="240" y="1324" width="92" height="118"/>
  <object id="66" x="242" y="1184" width="90" height="108"/>
  <object id="67" x="240" y="1040" width="94" height="116"/>
  <object id="68" x="240" y="890" width="88" height="120"/>
  <object id="69" x="432" y="780" width="1048" height="30"/>
  <object id="70" x="448" y="816" width="14" height="236"/>
  <object id="71" x="1292" y="1012" width="186" height="38"/>
  <object id="72" x="1456" y="814" width="16" height="206"/>
  <object id="73" x="1028" y="882" width="196" height="152"/>
  <object id="74" x="494" y="878" width="210" height="164"/>
  <object id="75" x="1794" y="1268" width="202" height="146"/>
  <object id="76" x="2276" y="1258" width="198" height="166"/>
  <object id="77" x="2702" y="1130" width="126" height="152"/>
  <object id="78" x="2278" y="882" width="194" height="150"/>
  <object id="79" x="1806" y="882" width="186" height="150"/>
  <object id="80" x="2692" y="792" width="134" height="154"/>
  <object id="81" x="2698" y="500" width="124" height="160"/>
  <object id="82" x="532" y="484" width="164" height="186"/>
  <object id="83" x="548" y="210" width="194" height="148"/>
  <object id="84" x="890" y="206" width="196" height="158"/>
  <object id="85" x="1222" y="202" width="190" height="160"/>
  <object id="86" x="1498" y="222" width="130" height="136"/>
  <object id="87" x="2022" y="194" width="126" height="178"/>
  <object id="88" x="2178" y="194" width="102" height="174"/>
  <object id="89" x="2320" y="196" width="104" height="172"/>
  <object id="90" x="2462" y="196" width="114" height="178"/>
  <object id="91" x="2252" y="20" width="626" height="124"/>
  <object id="92" x="1338" y="22" width="732" height="118"/>
  <object id="93" x="190" y="12" width="960" height="126"/>
  <object id="94" x="1644" y="264" width="24" height="120"/>
  <object id="95" x="1678" y="246" width="214" height="18"/>
  <object id="96" x="1876" y="272" width="32" height="104"/>
  <object id="97" x="980" y="2452" width="148" height="174"/>
  <object id="98" x="1166" y="2450" width="158" height="164"/>
  <object id="99" x="776" y="2714" width="26" height="124"/>
  <object id="100" x="542" y="2708" width="24" height="124"/>
  <object id="101" x="538" y="2846" width="258" height="26"/>
  <object id="102" x="576" y="2700" width="50" height="16"/>
  <object id="103" x="718" y="2700" width="48" height="22"/>
  <object id="104" x="1678" y="374" width="42" height="8"/>
  <object id="105" x="1822" y="370" width="54" height="8"/>
 </objectgroup>
 <objectgroup id="7" name="player_obj">
  <object id="107" x="284" y="2496" width="50" height="56"/>
 </objectgroup>
</map>
